X: 5
T:The Waterloo Dance
% Nottingham Music Database
S:Thomas Hardy Collection via Yetties, via PR
M:2/4
L:1/4
K:D
(A/4G/4)|"D"F/2(d/4B/4) "A"A/2(f/4e/4)|"Bm"d/2d/2 d/2(c/4d/4)|\
"Em"e/2e/2 "A7"(d/4c/4)
P:\.
B/4\
P:\.
c/4|"D"(d/4c/4)d/4e/4 "A7"f/2(A/4G/4)|"D"F/2(d/4B/4) "A"A/2(f/4e/4)|\
"Bm"d/2d/2 d/2(c/4d/4)|"Em"e/2e/2 "A7"d/4c/4B/4c/4|"D"d/2f/2 d/2::
(c/4d/4)|"A"e/2(d/4c/4) a/2(a/4f/4)|"A"e/2e/4c/4 A/2A/2|\
"E7"^G/4A/4B/4c/4 d/4B/4f/4e/4|"D"d "A"c/2(c/4d/4)|
"A"e/2(c/4A/4) "D"a/2(f/4d/4)|"A"e/2(e/4c/4) A/2A/2|\
"E7"^G/4A/4B/4c/4 d/4B/4A/4G/4|"A"A3/2::
(f/4g/4)|"D"a3/2f/2|"G"\
P:\.
b/2\
P:\.
a/2 \
P:\.
g/2\
P:\.
f/2|"A7"e/2e/2 (e/4-d/4)e/4f/4|"D"d/2e/2 "A"f/2g/2|"D"a3/2f/2|"G"b/2a/2 g/2f/2|\
"A7"e/2e/2 e/4d/4e/4f/4|"D"d3/2:|


